X:01
T:Waves on the Ocean
L:1/8
M:2/4
S:Joe Caudill, from notation by Tom Sauber
Z: Contributed 2016-04-03 04:08:29 by jim Gaskins fiddleji@comcast.net
K:G
B(A/E/ D/)EGA|g/(a/g/)d/ ed/g/|e/d/B/G/ AG/A/|B/A/B/(d/ B/A/)G/B/|
A/G/E/G/ (D/E/)G/e/|(g/a/g/)d/ ed/g/|e/d/B/G/ AG|(A/B/)B/A/ B>(B|
B)(G/E/ D/)E/G/A/|g/a/g/d/ ed/g/|e/d/B/G/ AG/A/|B/A/B/(d/ B/A/)G/B/|
A/G/E/G/ (D/E/)G/A/|(g/a/g/)d/ ed/g/|e/d/B/G/ AG|(A/B/)B/A/ B(B|
B)(B/d/ d)(d/B/|d)(d/B/ d/)d/e/d/|c/(B/A/B/) A/B/A/(F/|D/F/)A (A/B/)c/c/|
B/(G/G) (d/B/)G/B/|d(d/B/) d/d/e/d/|c/(B/A/B/) A/B/A/(F/|D/F/)A (A/B/)c/c/|
B/G/G/(E/ D/E/)G/e/| g/a/g/(d/ e)d/g/|e/d/B/(G/ A)G/A/|(B/A/)B/d/ B/A/G/B/|
A/G/E/G/ (D/E/)G/G/|(g/a/g/)d/ ed/g/|e/d/B/G/ AG|(A/B/)G/A/ B>(B|
